X: 1498
T: Irish Music Club, The
T: an t-aos ceoil-eirinnai.g.
R: reel
O: Cronin
B: O'Neill's "Music of Ireland" 1850 #1498
Z: transcribed by John B. Walsh, walsh@math.ubc.ca 8/22/96
Z: Compacted via repeats and multiple endings [JC]
M: C|
L: 1/8
K: D
(dB) |: AFDE FEFG | A^GAB cBcA |1 defd cAGF | DG{A}GF GABG :|2 defg abag | fdec d2 |] A2 | defg abaf |
| defg abaf | dg2f gagf | dggf g2fg || agfe defd | cAGF GABc | defd cAGF | Addc d2 |]
